public/img/house.svg

<svg width="45" height="48" viewBox="0 0 45 48" fill="none" xmlns="http://www.w3.org/2000/svg">
<path d="M40.3123 0.666687H17.0233C14.431 0.666687 12.3333 2.76435 12.3333 5.35669V18.5097L1.36199 29.341C1.03326 29.6661 0.808525 30.0816 0.716312 30.5347C0.6241 30.9877 0.668565 31.458 0.844064 31.8857C1.01956 32.3135 1.31818 32.6794 1.70203 32.9372C2.08587 33.1949 2.53764 33.3328 2.99999 33.3334V45C2.99999 45.6189 3.24582 46.2124 3.68341 46.6499C4.12099 47.0875 4.71448 47.3334 5.33332 47.3334H42.6667C43.2855 47.3334 43.879 47.0875 44.3166 46.6499C44.7542 46.2124 45 45.6189 45 45V5.35435C45 2.76435 42.9046 0.666687 40.3123 0.666687ZM21.4847 31.259V42.6667H7.66665V29.6747L14.6363 22.7937L21.4847 29.8007V31.259ZM26.3333 17H21.6667V12.3334H26.3333V17ZM35.6666 35.6667H31V31H35.6666V35.6667ZM35.6666 26.3334H31V21.6667H35.6666V26.3334ZM35.6666 17H31V12.3334H35.6666V17Z" fill="#434343"/>
</svg>

<svg width="45" height="48" fill="none" xmlns="http://www.w3.org/2000/svg"><path d="M40.312.667H17.023a4.687 4.687 0 00-4.69 4.69V18.51L1.362 29.34A2.333 2.333 0 003 33.333V45a2.333 2.333 0 002.333 2.333h37.334A2.333 2.333 0 0045 45V5.354A4.685 4.685 0 0040.312.667zM21.485 31.259v11.408H7.667V29.675l6.97-6.881 6.848 7.007v1.458zM26.333 17h-4.666v-4.667h4.666V17zm9.334 18.667H31V31h4.667v4.667zm0-9.334H31v-4.666h4.667v4.666zm0-9.333H31v-4.667h4.667V17z" fill="#434343"/></svg>
